X:1
T:O Jesu veracissime
T:O Jesu veracissime
T:André Vierendeels (09/09/10)
C:André Vierendeels
C:(09/09/10)
%%score [ 1 2 3 4 ]
L:1/8
Q:1/4=120
M:2/4
K:F
V:1 treble nm="Soprano" snm="S"
V:2 treble nm="Alto" snm="A"
V:3 treble-8 nm="Tenor" snm="T"
V:4 bass nm="Bass" snm="B"
V:1
 D4 |[M:2/2] D4 E4 | F4 G4 | A4 G4 | !fermata!F4 A4 | G4 F4 | E4 F4 | G4 G4 | !fermata!F4 c4 | %9
w: O|Je- su|ve- ra-|cis- si-|me, cre-|do in|te fer-|mis- si-|me. Cre-|
 c4 =B4 | c4 d4 | e4 d4 | !fermata!c4 e4 | d4 c4 | =B4 A4 | =B4 B4 |"^-natural" !fermata!A4 c4 | %17
w: do quod|A- po-|sto- li-|ca fi-|des de-|cet Ca-|tho- li-|ca. In|
 c4 c4 | d4 d4 | c4 B4 | !fermata!A4 c4 | B4 A4 | G4 F4 | G4 G4 | !fermata!F4 A4 | A4 A2 A2 | %26
w: is- ta|fi- de|glo- ri-|or, in|i- sta|fi- de|mo- ri-|or; pro|hac- e- um|
 B4 E4 | A4 G4 | !fermata!F4 A4 | G4 F4 | F4 E4 | E6 D2 | !fermata!D8 |] %33
w: tu- a|gra- ti-|a tor-|men- ta|cun- cta|pa- ti-|ar.|
V:2
 A,4 |[M:2/2] B,4 C4 | D4 C4 | E4 F2 E2 | !fermata!C4 D4 | D4 D4 | C4 D4 | E2 F4 E2 | %8
w: O|Je- su|ve- ra-|cis- si- *|me, cre-|do in|te fer-|mis- * si-|
 !fermata!C4 F4 | D4 D4 | E4 D4 | G4 c2 =B2 | !fermata!G4 c4 | F4 E4 | ^G4 E4 | G4 ^G4 | %16
w: me. Cre-|do quod|A- po-|sto- li- *|ca fi-|des de-|cet Ca-|tho- li-|
 !fermata!E4 E4 | E4 F4 | F4 D4 | A4 G4 | !fermata!F4 C4 | F4 F4 | D4 D4 | E2 F4 E2 | %24
w: ca. In|is- ta|fi- de|glo- ri-|or, in|i- sta|fi- de|mo- * ri-|
 !fermata!C4 F4 | E4 F2 F2 | F2 G2 C4 | E4 E4 | !fermata!C4 E4 | E2 D2 C4 | D4 =B,4 | %31
w: or; pro|hac e- um|tu- * a|gra- ti-|a tor-|men- * ta|cun- cta|
 A,2 =B,2 ^C4 | !fermata!D8 |] %33
w: pa- * ti-|ar.|
V:3
 F4 |[M:2/2] F2 G2 E4 | A4 G4 | c4 G4 | !fermata!A4 F4 | B4 A4 | A4 A4 | G4 G4 | !fermata!A4 A4 | %9
w: O|Je- * su|ve- ra-|cis- si-|me, cre-|do in|te fer-|mis- si|me. Cre-|
 G4 G4 | G4 =B4 | c4 d4 | !fermata!e4 A4 | A4 c4 | e4 c4 | d4 e4 | !fermata!^c4 A4 | G4 A4 | %18
w: do quod|A- po-|sto- li-|ca fi-|des de-|cet Ca-|tho- li-|ca. In|is- ta|
 A4 B4 | c2 d2 e2 d2 | !fermata!c4 A4 | d4 c4 | B4 A4 | G4 G4 | !fermata!A4 c4 | c4 A2 A2 | d4 G4 | %27
w: fi- des|glo- * ri- *|or, in|is ta|fi- des|mo- ri-|or; pro|hac e- um|tu- a|
 c4 G4 | !fermata!A4 c4 | =B4 A4 | A4 ^G4 | E4 A4 | !fermata!^F8 |] %33
w: gra- ti-|a tor-|men- ta|cun- cta|pa- ti-|ar.|
V:4
 D,4 |[M:2/2] B,,4 A,,4 | D,4 E,4 | A,,4 C,4 | !fermata!F,4 D,4 | G,4 D,4 | A,,4 D,4 | C,4 C,4 | %8
w: O|Je- su|ve- ra-|tis- si-|me, cre-|do- in|te fer-|mis- si-|
 !fermata!F,4 F,,4 | G,,4 G,,4 | C,4 G,4 | C,4 G,4 | !fermata!C,4 A,,4 | D,4 A,4 | E,4 A,4 | %15
w: me. Cre-|do quod|A- po-|sto- li-|ca fi-|des de-|cet Ca-|
 G,3 F, E,4 | !fermata!A,4 A,,4 | C,4 F,4 | D,4 G,4 | A,2 G,2 C,2 D,2 | !fermata!F,4 F,4 | %21
w: tho _ li-|ca. In|is- ta|fi- des|glo- * ri- *|or, in|
 B,4 F,4 | G,4 D,4 | C,4 C,4 | !fermata!F,4 F,4 | A,4 D,2 D,2 | B,,2 G,,2 C,4 | A,,4 C,4 | %28
w: is- ta|fi- des|mo- ri-|or; pro|hac e- um|tu- * a|gra- ti-|
 !fermata!F,4 A,4 | E,4 F,4 | D,4 E,4 | A,,4 A,,4 | !fermata!D,8 |] %33
w: a tor-|men- ta|cun- cta|pa- ti-|ar.|

